X:553
T:Here's to All Around Ardmillan
C:J Warden
S:Gatherer's Musical Museum, 
N:orig. from Hamilton's Universal Tune Book
Z:Nigel Gatherer
M:6/8
L:1/8
K:G
E | DEG G2A | B2c BAG | DEG  G2A | B2e d2B  |
    DEG G2A | B2c BAG | B>AG efg | dcB A2G ||
    Bcd G2B | cde edc | Bcd  G2e | d2B A2G  |
    Bcd G2d | efg e2d | gze  czB | BAG A2G |]
<end>
<start>
